X:58
T:Saltarella
C:Y. Dour: Accordons diatoniques
M:6/8
L:1/8
K:G
d|dcB AFA|cBA BGB|dcB AFA|cBA G3|\
dcB AFA|cBA BGB|dcB ABc|def g2||
|:g|geg f2e|edc e2d|dcd d2c|cBc e2d|\
deg f2e|edc e2d|deg fed|cBA G2:|
G|AFA cBA|BGB dcB|AFA cBA|G3-G2||
